build/img/svg/facebook.svg

<svg width="30" height="30" viewBox="0 0 30 30" fill="none" xmlns="http://www.w3.org/2000/svg">
<path d="M30 15C30 6.71572 23.2843 0 15 0C6.71572 0 0 6.71572 0 15C0 22.4868 5.48525 28.6925 12.6562 29.8178V19.3359H8.84766V15H12.6562V11.6953C12.6562 7.93594 14.8957 5.85938 18.322 5.85938C19.9626 5.85938 21.6797 6.15234 21.6797 6.15234V9.84375H19.7883C17.925 9.84375 17.3438 11.0001 17.3438 12.1875V15H21.5039L20.8389 19.3359H17.3438V29.8178C24.5147 28.6925 30 22.4868 30 15Z" fill="white" fill-opacity="0.7"/>
</svg>

<svg width="30" height="30" fill="none" xmlns="http://www.w3.org/2000/svg"><path d="M30 15c0-8.284-6.716-15-15-15C6.716 0 0 6.716 0 15c0 7.487 5.485 13.692 12.656 14.818V19.336H8.848V15h3.808v-3.305c0-3.76 2.24-5.836 5.666-5.836 1.64 0 3.358.293 3.358.293v3.692h-1.892c-1.863 0-2.444 1.156-2.444 2.344V15h4.16l-.665 4.336h-3.495v10.482C24.514 28.692 30 22.487 30 15z" fill="#fff" fill-opacity=".7"/></svg>
